svg/u1f631.svg

<svg viewBox="0 0 128 128" xmlns="http://www.w3.org/2000/svg">
  <g id="gold">
    <radialGradient id="face_1_" cx="63.6" cy="1992.9" gradientTransform="matrix(1 0 0 1 0 -1930)" gradientUnits="userSpaceOnUse" r="56.9597">
      <stop offset="0.5" stop-color="#FDE030"/>
      <stop offset="0.92" stop-color="#F7C02B"/>
      <stop offset="1" stop-color="#F4A223"/>
    </radialGradient>
    <path id="face" d="M63.6,118.8c-27.9,0-58-17.5-58-55.9S35.7,7,63.6,7c15.5,0,29.8,5.1,40.4,14.4 c11.5,10.2,17.6,24.6,17.6,41.5s-6.1,31.2-17.6,41.4C93.4,113.6,79,118.8,63.6,118.8z" fill="url(#face_1_)"/>
  </g>
  <g id="faces">
    <g id="screaming-face">
      <path d="M111.49,29.67c5.33,8.6,8.11,18.84,8.11,30.23c0,16.9-6.1,31.2-17.6,41.4 c-10.6,9.3-25,14.5-40.4,14.5c-18.06,0-37-7.35-48.18-22.94c10.76,17.66,31,25.94,50.18,25.94c15.4,0,29.8-5.2,40.4-14.5 c11.5-10.2,17.6-24.5,17.6-41.4C121.6,50.16,118.13,38.84,111.49,29.67z" fill="#EB8F00"/>
      <linearGradient id="effect_1_" gradientTransform="matrix(1 0 0 1 0 -1930)" gradientUnits="userSpaceOnUse" x1="63.6" x2="63.6" y1="2048.8" y2="1937">
        <stop offset="0.39" stop-color="#40C0E7" stop-opacity="0"/>
        <stop offset="1" stop-color="#5F7AFF"/>
      </linearGradient>
      <path id="effect" d="M63.6,118.8c-27.9,0-58-17.5-58-55.9S35.7,7,63.6,7c15.5,0,29.8,5.1,40.4,14.4 c11.5,10.2,17.6,24.6,17.6,41.5s-6.1,31.2-17.6,41.4C93.4,113.6,79,118.8,63.6,118.8z" fill="url(#effect_1_)"/>
      <linearGradient id="face-2_1_" gradientTransform="matrix(1 0 0 1 0 -1930)" gradientUnits="userSpaceOnUse" x1="63.6" x2="63.6" y1="2048.8" y2="1937">
        <stop offset="0.16" stop-color="#F4A223"/>
        <stop offset="0.33" stop-color="#F7C02B"/>
        <stop offset="0.81" stop-color="#FDE030" stop-opacity="0"/>
      </linearGradient>
      <path id="face-2" d="M63.6,118.8c-27.9,0-58-17.5-58-55.9S35.7,7,63.6,7c15.5,0,29.8,5.1,40.4,14.4 c11.5,10.2,17.6,24.6,17.6,41.5s-6.1,31.2-17.6,41.4C93.4,113.6,79,118.8,63.6,118.8z" fill="url(#face-2_1_)"/>
      <path d="M111.49,29.67c5.33,8.6,8.11,18.84,8.11,30.23c0,16.9-6.1,31.2-17.6,41.4 c-10.6,9.3-25,14.5-40.4,14.5c-18.06,0-37-7.35-48.18-22.94c10.76,17.66,31,25.94,50.18,25.94c15.4,0,29.8-5.2,40.4-14.5 c11.5-10.2,17.6-24.5,17.6-41.4C121.6,50.16,118.13,38.84,111.49,29.67z" fill="#EB8F00"/>
    </g>
  </g>
  <g id="facial_expressions">
    <g id="screaming-face-2">
      <path id="mouth" d="M64,109.73c-6.02-0.04-10.89-4.91-10.93-10.93V86.2c0-6.04,4.89-10.93,10.93-10.93 s10.93,4.89,10.93,10.93v12.61C74.89,104.83,70.02,109.69,64,109.73z" fill="#422B0D"/>
      <g id="eyes">
        <path d="M43.29,41.82c2.04,0,4.04,0.59,5.76,1.69c5.64,3.57,8,12,3.45,20.71c-3.14,6-7.86,8.77-12.33,8.77 c-2.04,0-4.04-0.59-5.76-1.69c-5.64-3.57-8-12-3.45-20.71C34.1,44.59,38.81,41.82,43.29,41.82" fill="#FFFFFF"/>
      </g>
    </g>
    <g id="screaming-face-3">
      <g id="screaming-face-palm">
        <linearGradient id="SVGID_1_" gradientTransform="matrix(-1 0 0 -1 -326.57 130)" gradientUnits="userSpaceOnUse" x1="-424.8708" x2="-424.8708" y1="2.18" y2="51.88">
          <stop offset="0" stop-color="#ED6C30"/>
          <stop offset="1" stop-color="#ED6C30" stop-opacity="0.2"/>
        </linearGradient>
        <path d="M118.94,73c-1.37-1-1.2-2.11-5-0.58 c-1.57,0.64-3.37,4.24-3.37,4.24s-2.71-5.42-8.07,1.79c-9.74,13.08-14,12.48-19.73,18.48c-3.69,3.84-6.88,7.5-5.65,14.77 c0.69,4.06,2.62,5.17,2.62,5.17s1.18,0,12.76-6s21.69-14.49,27.25-28.09" enable-background="new " fill="url(#SVGID_1_)" opacity="0.66"/>
        <radialGradient id="SVGID_2_" cx="-201.4126" cy="-76.5945" gradientTransform="matrix(-0.78 0.62 -0.57 -0.72 -109.26 164.01)" gradientUnits="userSpaceOnUse" r="44.86">
          <stop offset="0.27" stop-color="#FFF176"/>
          <stop offset="1" stop-color="#FFC400"/>
        </radialGradient>
        <path d="M87.74,99.52c4.35-3.3,8.55-6.33,10.53-8.94s4.11-8.08,5.39-11.66s5-5.33,7-2.27 c0.52,0.82,0.11,4,0,5.22c1.09-1.81,1.86-3.8,2.28-5.87c1-4.88,6.1-6.46,7,0.1c0,0,3.79,0.15,2.11,11.91 c-0.84,4.58-2.35,9.02-4.5,13.15c-5.39,10.16-9.61,14.87-15.07,18.61c-8.54,5.84-16.63,4.45-19.16,1.13 C79,115.19,80.16,105.27,87.74,99.52z" fill="url(#SVGID_2_)"/>
        <path d="M110.62,76.65c0,1.95-1.88,8.74-2.59,10.48c-2.45,6.45-6.92,9.45-5.67,10.47s3.64-1.15,7.09-9.34 c1.06-2.79,1.68-5.72,1.82-8.7C111.26,78.55,111.04,77.56,110.62,76.65z" fill="#ED6C30"/>
        <path d="M117.2,71.71c1.27,0.55,3.16,4.17,0.33,14.31c-1.75,7.66-7.57,13.62-6.17,14.29 c1.65,1.11,5.42-5.14,8.09-13.8c0.7-2.62,1.14-5.3,1.29-8C120.78,77.15,120.32,72.08,117.2,71.71z" fill="#ED6C30"/>
      </g>
      <g id="screaming-face-palm-2">
        <linearGradient id="SVGID_3_" gradientTransform="matrix(1 0 0 -1 -51.35 130)" gradientUnits="userSpaceOnUse" x1="80.5142" x2="80.5142" y1="2.18" y2="51.88">
          <stop offset="0" stop-color="#ED6C30"/>
          <stop offset="1" stop-color="#ED6C30" stop-opacity="0.2"/>
        </linearGradient>
        <path d="M8.53,73c1.37-1,1.2-2.11,5-0.58 c1.57,0.64,3.37,4.24,3.37,4.24s2.71-5.42,8.07,1.79c9.74,13.08,14,12.48,19.73,18.48c3.68,3.84,6.87,7.5,5.64,14.77 c-0.68,4.06-2.61,5.17-2.61,5.17s-1.92,0-11.13-4.7c-0.79-0.4-0.72-0.81-1.63-1.29c-11.58-6-21.69-14.49-27.25-28.09" enable-background="new " fill="url(#SVGID_3_)" opacity="0.66"/>
        <radialGradient id="SVGID_4_" cx="201.1161" cy="252.5766" gradientTransform="matrix(0.78 0.62 0.57 -0.72 -264.92 151.37)" gradientUnits="userSpaceOnUse" r="44.86">
          <stop offset="0.27" stop-color="#FFF176"/>
          <stop offset="1" stop-color="#FFC400"/>
        </radialGradient>
        <path d="M39.73,99.52c-4.35-3.3-8.55-6.33-10.53-8.94s-4.11-8.08-5.4-11.66s-5-5.33-6.95-2.27 c-0.52,0.82-0.11,4,0,5.22c-1.1-1.81-1.89-3.8-2.32-5.87c-1-4.88-6.1-6.46-7,0.1c0,0-3.79,0.15-2.11,11.91 c0.84,4.58,2.35,9.02,4.5,13.15c5.38,10.16,9.61,14.87,15.07,18.61c8.53,5.84,16.62,4.45,19.16,1.13 C48.44,115.19,47.31,105.27,39.73,99.52z" fill="url(#SVGID_4_)"/>
        <path d="M16.85,76.65c0,1.95,1.88,8.74,2.59,10.48c2.45,6.45,6.91,9.45,5.67,10.47s-3.65-1.15-7.1-9.34 c-1.06-2.79-1.67-5.72-1.81-8.7C16.2,78.55,16.42,77.56,16.85,76.65z" fill="#ED6C30"/>
        <path d="M10.26,71.71C9,72.26,7.11,75.88,9.94,86c1.75,7.66,7.57,13.62,6.17,14.29 c-1.65,1.11-5.42-5.14-8.09-13.8c-0.7-2.62-1.14-5.3-1.29-8C6.69,77.15,7.15,72.08,10.26,71.71z" fill="#ED6C30"/>
      </g>
    </g>
    <g id="eyes-2">
      <path d="M52.63,64.29c-0.74,2.61-2.11,4.99-4,6.94C46.59,73.34,43.9,74.7,41,75.1 c-3.11,0.39-6.26-0.42-8.8-2.25c-2.5-1.82-4.38-4.38-5.37-7.31c-0.23-0.71-0.42-1.44-0.56-2.18c-0.13-0.73-0.22-1.47-0.27-2.21 L25.93,60l0.05-1.1c0.03-0.73,0.11-1.45,0.25-2.17c0.55-2.76,1.64-5.39,3.2-7.73c1.51-2.39,3.57-4.38,6-5.82 c2.37-1.43,5.18-1.95,7.91-1.47V42c-2.53,0.05-4.99,0.91-7,2.45c-2,1.53-3.65,3.48-4.84,5.7c-1.25,2.18-2.09,4.56-2.5,7.04 c-0.38,2.48-0.17,5.01,0.62,7.39c0.76,2.38,2.23,4.48,4.22,6c1.99,1.55,4.48,2.32,7,2.16c2.5-0.18,4.89-1.14,6.82-2.74 c1.95-1.61,3.55-3.59,4.71-5.84L52.63,64.29z" fill="#EB8F00"/>
    </g>
    <path d="M84.81,41.82c4.48,0,9.19,2.8,12.33,8.77c4.57,8.67,2.19,17.14-3.45,20.71 c-1.72,1.11-3.72,1.7-5.76,1.7c-4.47,0-9.19-2.8-12.33-8.77c-4.6-8.68-2.19-17.15,3.45-20.72C80.77,42.41,82.77,41.82,84.81,41.82" fill="#FFFFFF"/>
    <g id="eyes-3">
      <path d="M84.81,41.67c2.73-0.48,5.54,0.04,7.91,1.47c2.43,1.44,4.49,3.43,6,5.82 c1.57,2.37,2.66,5.02,3.2,7.81c0.13,0.72,0.22,1.44,0.25,2.17v1.1v1.11c-0.06,1.49-0.34,2.97-0.82,4.39 c-0.99,2.93-2.86,5.48-5.37,7.3c-2.54,1.84-5.68,2.64-8.79,2.25c-2.93-0.39-5.64-1.75-7.69-3.87c-1.89-1.94-3.27-4.32-4-6.93 l0.26-0.14c1.15,2.24,2.74,4.23,4.68,5.85c1.94,1.61,4.33,2.57,6.84,2.75c2.52,0.16,5.01-0.61,7-2.16c1.98-1.53,3.45-3.62,4.21-6 c0.79-2.38,1-4.91,0.62-7.39c-0.39-2.48-1.22-4.88-2.46-7.07c-1.19-2.22-2.84-4.17-4.84-5.7c-2.01-1.54-4.47-2.4-7-2.45V41.67z" fill="#EB8F00"/>
    </g>
  </g>
</svg>

<svg viewBox="0 0 128 128" xmlns="http://www.w3.org/2000/svg">
  <defs>
    <radialGradient id="face_1_" cx="63.6" cy="62.9" gradientUnits="userSpaceOnUse" r="56.9597">
      <stop offset="0.5" stop-color="#FDE030"/>
      <stop offset="0.92" stop-color="#F7C02B"/>
      <stop offset="1" stop-color="#F4A223"/>
    </radialGradient>
    <linearGradient id="effect_1_" gradientUnits="userSpaceOnUse" x1="63.6" x2="63.6" y1="118.8" y2="7">
      <stop offset="0.39" stop-color="#40C0E7" stop-opacity="0"/>
      <stop offset="1" stop-color="#5F7AFF"/>
    </linearGradient>
    <linearGradient id="face-2_1_" gradientUnits="userSpaceOnUse" x1="63.6" x2="63.6" y1="118.8" y2="7">
      <stop offset="0.16" stop-color="#F4A223"/>
      <stop offset="0.33" stop-color="#F7C02B"/>
      <stop offset="0.81" stop-color="#FDE030" stop-opacity="0"/>
    </linearGradient>
    <linearGradient id="SVGID_1_" gradientTransform="matrix(-1 0 0 -1 0 0)" gradientUnits="userSpaceOnUse" x1="-98.3008" x2="-98.3008" y1="-127.82" y2="-78.12">
      <stop offset="0" stop-color="#ED6C30"/>
      <stop offset="1" stop-color="#ED6C30" stop-opacity="0.2"/>
    </linearGradient>
    <radialGradient id="SVGID_2_" cx="-13.267354" cy="-142.372205" gradientTransform="matrix(-0.78 0.62 -0.57 -0.72 0 0)" gradientUnits="userSpaceOnUse" r="44.86">
      <stop offset="0.27" stop-color="#FFF176"/>
      <stop offset="1" stop-color="#FFC400"/>
    </radialGradient>
    <linearGradient id="SVGID_3_" gradientTransform="matrix(1 0 0 -1 0 0)" gradientUnits="userSpaceOnUse" x1="29.1642" x2="29.1642" y1="-127.82" y2="-78.12">
      <stop offset="0" stop-color="#ED6C30"/>
      <stop offset="1" stop-color="#ED6C30" stop-opacity="0.2"/>
    </linearGradient>
    <radialGradient id="SVGID_4_" cx="86.950526" cy="-55.968755" gradientTransform="matrix(0.78 0.62 0.57 -0.72 0 0)" gradientUnits="userSpaceOnUse" r="44.86">
      <stop offset="0.27" stop-color="#FFF176"/>
      <stop offset="1" stop-color="#FFC400"/>
    </radialGradient>
  </defs>
  <path id="face" d="M63.6,118.8 C35.7,118.8 5.6,101.3 5.6,62.9 C5.6,24.5 35.7,7 63.6,7 C79.1,7 93.4,12.1 104,21.4 C115.5,31.6 121.6,46 121.6,62.9 C121.6,79.8 115.5,94.1 104,104.3 C93.4,113.6 79,118.8 63.6,118.8 Z" fill="url(#face_1_)"/>
  <path d="M111.49,29.67 C116.82,38.27 119.6,48.51 119.6,59.9 C119.6,76.8 113.5,91.1 102,101.3 C91.4,110.6 77,115.8 61.6,115.8 C43.54,115.8 24.6,108.45 13.42,92.86 C24.18,110.52 44.42,118.8 63.6,118.8 C79,118.8 93.4,113.6 104,104.3 C115.5,94.1 121.6,79.8 121.6,62.9 C121.6,50.16 118.13,38.84 111.49,29.67 Z" fill="#EB8F00"/>
  <path id="effect" d="M63.6,118.8 C35.7,118.8 5.6,101.3 5.6,62.9 C5.6,24.5 35.7,7 63.6,7 C79.1,7 93.4,12.1 104,21.4 C115.5,31.6 121.6,46 121.6,62.9 C121.6,79.8 115.5,94.1 104,104.3 C93.4,113.6 79,118.8 63.6,118.8 Z" fill="url(#effect_1_)"/>
  <path id="face-2" d="M63.6,118.8 C35.7,118.8 5.6,101.3 5.6,62.9 C5.6,24.5 35.7,7 63.6,7 C79.1,7 93.4,12.1 104,21.4 C115.5,31.6 121.6,46 121.6,62.9 C121.6,79.8 115.5,94.1 104,104.3 C93.4,113.6 79,118.8 63.6,118.8 Z" fill="url(#face-2_1_)"/>
  <path d="M111.49,29.67 C116.82,38.27 119.6,48.51 119.6,59.9 C119.6,76.8 113.5,91.1 102,101.3 C91.4,110.6 77,115.8 61.6,115.8 C43.54,115.8 24.6,108.45 13.42,92.86 C24.18,110.52 44.42,118.8 63.6,118.8 C79,118.8 93.4,113.6 104,104.3 C115.5,94.1 121.6,79.8 121.6,62.9 C121.6,50.16 118.13,38.84 111.49,29.67 Z" fill="#EB8F00"/>
  <path id="mouth" d="M64,109.73 C57.98,109.69 53.11,104.82 53.07,98.8 L53.07,86.2 C53.07,80.16 57.96,75.27 64,75.27 C70.04,75.27 74.93,80.16 74.93,86.2 L74.93,98.81 C74.89,104.83 70.02,109.69 64,109.73 Z" fill="#422B0D"/>
  <path d="M43.29,41.82 C45.33,41.82 47.33,42.41 49.05,43.51 C54.69,47.08 57.05,55.51 52.5,64.22 C49.36,70.22 44.64,72.99 40.17,72.99 C38.13,72.99 36.13,72.4 34.41,71.3 C28.77,67.73 26.41,59.3 30.96,50.59 C34.1,44.59 38.81,41.82 43.29,41.82" fill="#FFFFFF"/>
  <path d="M118.94,73 C117.57,72 117.74,70.89 113.94,72.42 C112.37,73.06 110.57,76.66 110.57,76.66 C110.57,76.66 107.86,71.24 102.5,78.45 C92.76,91.53 88.5,90.93 82.77,96.93 C79.08,100.77 75.89,104.43 77.12,111.7 C77.81,115.76 79.74,116.87 79.74,116.87 C79.74,116.87 80.92,116.87 92.5,110.87 C104.08,104.87 114.19,96.38 119.75,82.78" fill="url(#SVGID_1_)" opacity="0.66"/>
  <path d="M87.74,99.52 C92.09,96.22 96.29,93.19 98.27,90.58 C100.25,87.97 102.38,82.5 103.66,78.92 C104.94,75.34 108.66,73.59 110.66,76.65 C111.18,77.47 110.77,80.65 110.66,81.87 C111.75,80.06 112.52,78.07 112.94,76 C113.94,71.12 119.04,69.54 119.94,76.1 C119.94,76.1 123.73,76.25 122.05,88.01 C121.21,92.59 119.7,97.03 117.55,101.16 C112.16,111.32 107.94,116.03 102.48,119.77 C93.94,125.61 85.85,124.22 83.32,120.9 C79,115.19 80.16,105.27 87.74,99.52 Z" fill="url(#SVGID_2_)"/>
  <path d="M110.62,76.65 C110.62,78.6 108.74,85.39 108.03,87.13 C105.58,93.58 101.11,96.58 102.36,97.6 C103.61,98.62 106,96.45 109.45,88.26 C110.51,85.47 111.13,82.54 111.27,79.56 C111.26,78.55 111.04,77.56 110.62,76.65 Z" fill="#ED6C30"/>
  <path d="M117.2,71.71 C118.47,72.26 120.36,75.88 117.53,86.02 C115.78,93.68 109.96,99.64 111.36,100.31 C113.01,101.42 116.78,95.17 119.45,86.51 C120.15,83.89 120.59,81.21 120.74,78.51 C120.78,77.15 120.32,72.08 117.2,71.71 Z" fill="#ED6C30"/>
  <path d="M8.53,73 C9.9,72 9.73,70.89 13.53,72.42 C15.1,73.06 16.9,76.66 16.9,76.66 C16.9,76.66 19.61,71.24 24.97,78.45 C34.71,91.53 38.97,90.93 44.7,96.93 C48.38,100.77 51.57,104.43 50.34,111.7 C49.66,115.76 47.73,116.87 47.73,116.87 C47.73,116.87 45.81,116.87 36.6,112.17 C35.81,111.77 35.88,111.36 34.97,110.88 C23.39,104.88 13.28,96.39 7.72,82.79" fill="url(#SVGID_3_)" opacity="0.66"/>
  <path d="M39.73,99.52 C35.38,96.22 31.18,93.19 29.2,90.58 C27.22,87.97 25.09,82.5 23.8,78.92 C22.51,75.34 18.8,73.59 16.85,76.65 C16.33,77.47 16.74,80.65 16.85,81.87 C15.75,80.06 14.96,78.07 14.53,76 C13.53,71.12 8.43,69.54 7.53,76.1 C7.53,76.1 3.74,76.25 5.42,88.01 C6.26,92.59 7.77,97.03 9.92,101.16 C15.3,111.32 19.53,116.03 24.99,119.77 C33.52,125.61 41.61,124.22 44.15,120.9 C48.44,115.19 47.31,105.27 39.73,99.52 Z" fill="url(#SVGID_4_)"/>
  <path d="M16.85,76.65 C16.85,78.6 18.73,85.39 19.44,87.13 C21.89,93.58 26.35,96.58 25.11,97.6 C23.87,98.62 21.46,96.45 18.01,88.26 C16.95,85.47 16.34,82.54 16.2,79.56 C16.2,78.55 16.42,77.56 16.85,76.65 Z" fill="#ED6C30"/>
  <path d="M10.26,71.71 C9,72.26 7.11,75.88 9.94,86 C11.69,93.66 17.51,99.62 16.11,100.29 C14.46,101.4 10.69,95.15 8.02,86.49 C7.32,83.87 6.88,81.19 6.73,78.49 C6.69,77.15 7.15,72.08 10.26,71.71 Z" fill="#ED6C30"/>
  <path d="M52.63,64.29 C51.89,66.9 50.52,69.28 48.63,71.23 C46.59,73.34 43.9,74.7 41,75.1 C37.89,75.49 34.74,74.68 32.2,72.85 C29.7,71.03 27.82,68.47 26.83,65.54 C26.6,64.83 26.41,64.1 26.27,63.36 C26.14,62.63 26.05,61.89 26,61.15 L25.93,60 L25.98,58.9 C26.01,58.17 26.09,57.45 26.23,56.73 C26.78,53.97 27.87,51.34 29.43,49 C30.94,46.61 33,44.62 35.43,43.18 C37.8,41.75 40.61,41.23 43.34,41.71 L43.34,42 C40.81,42.05 38.35,42.91 36.34,44.45 C34.34,45.98 32.69,47.93 31.5,50.15 C30.25,52.33 29.41,54.71 29,57.19 C28.62,59.67 28.83,62.2 29.62,64.58 C30.38,66.96 31.85,69.06 33.84,70.58 C35.83,72.13 38.32,72.9 40.84,72.74 C43.34,72.56 45.73,71.6 47.66,70 C49.61,68.39 51.21,66.41 52.37,64.16 L52.63,64.29 Z" fill="#EB8F00"/>
  <path d="M84.81,41.82 C89.29,41.82 94,44.62 97.14,50.59 C101.71,59.26 99.33,67.73 93.69,71.3 C91.97,72.41 89.97,73 87.93,73 C83.46,73 78.74,70.2 75.6,64.23 C71,55.55 73.41,47.08 79.05,43.51 C80.77,42.41 82.77,41.82 84.81,41.82" fill="#FFFFFF"/>
  <path d="M84.81,41.67 C87.54,41.19 90.35,41.71 92.72,43.14 C95.15,44.58 97.21,46.57 98.72,48.96 C100.29,51.33 101.38,53.98 101.92,56.77 C102.05,57.49 102.14,58.21 102.17,58.94 L102.17,60.04 L102.17,61.15 C102.11,62.64 101.83,64.12 101.35,65.54 C100.36,68.47 98.49,71.02 95.98,72.84 C93.44,74.68 90.3,75.48 87.19,75.09 C84.26,74.7 81.55,73.34 79.5,71.22 C77.61,69.28 76.23,66.9 75.5,64.29 L75.76,64.15 C76.91,66.39 78.5,68.38 80.44,70 C82.38,71.61 84.77,72.57 87.28,72.75 C89.8,72.91 92.29,72.14 94.28,70.59 C96.26,69.06 97.73,66.97 98.49,64.59 C99.28,62.21 99.49,59.68 99.11,57.2 C98.72,54.72 97.89,52.32 96.65,50.13 C95.46,47.91 93.81,45.96 91.81,44.43 C89.8,42.89 87.34,42.03 84.81,41.98 L84.81,41.67 Z" fill="#EB8F00"/>
</svg>
